X:1
T:When I am sixty four
T:64
T: 
T:Arr. Reint vd Brink
C:the Beatles
%%score { ( 1 2 ) | ( 3 4 ) }
L:1/8
Q:1/4=140
M:4/4
K:C
V:1 treble-8 nm="Guitar" snm="Guit."
V:2 treble-8 
V:3 tab stafflines=6 strings=E2,A2,D3,G3,B3,E4 nostems 
V:4 tab stafflines=6 strings=E2,A2,D3,G3,B3,E4 nostems 
V:1
"^Shuffle" E_E=EG- G2 E2 | GAGc- c4 | ce- e2 c2 Ad- | d8 | BBdd BBdd | B_B-BA- A4 | B2 c2 ^c2 d2 | %7
 e_edc- c2 z2 | E_E=EG- G2 E2 | GAGc- c2 z2 | ee- e2 d2 Ac- | c4 z4 | cAc{/d}_e- e d3 | %13
 cAc{/^A}B- B =A3 | ee- e2 ee- e2 | c2 z2 z4!dacoda! || A4 B4 | c4 g4 | [Be]2 c2 B2 d2 | %19
 B2 c2 B2 d2 |!-(!{/g} !-)!a4 g4 | e4 d2 c2 | d4!-(!{/c} !-)!d2 A2- | A4 z4 | c4 A4 | G4 A4 | %26
 cEFG FEDC | G2 z2 G,2 G,2 | G2 G,B, DF- F2!D.C.! ||O cAcA cAcA | cAcA c2 EG- | G2 GE GA-AE- | E8 | %33
 A4 B4 | c4 g4 | [Be]2 c2 B2 d2 | B2 c2 B2 d2 |!-(!{/g} !-)!a4 g4 | e4 d2 c2 | d4{/c} d2 A2- | %40
 A4 z4 | c4 A4 | G4 A4 | cEFG FEDC | G2 z2 G,2 G,2 | G2 G,B, DF- F2 | E_E=EG- G2 E2 | GAGc- c4 | %48
 ce- e2 c2 Ad- | d8 | Bc^cd B=c^cd | B_B-BA- A4 | B2 c2 ^c2 d2 | e_edc- c2 z2 | E_E=EG- G2 E2 | %55
 GAGc- c2 z2 | ee- e2 d2 Ac- | c4 z4 | cAc{/d}_e- e d3 | cAc{/^A}B- B =A3 | ee- e2 ee- e2 | %61
 c2 z2 z4 |] %62
V:2
 .C4 .G,4 | C4 G,4 | C4 G,4 | G,4 D4 | G,4 D4 | G,4 D4 | G,2 A,2 ^A,2 B,2 | C2 z2 z4 | C4 G,4 | %9
w: |sim. *||||||||
 C4 G,4 | C4 G,4 | F,4 C4 | F,4 ^F,4 | G,4 A,4 | D4 G,4 | C2 G,2 C2 z2 || A,2 A,2 A,2 A,2 | %17
w: ||||||||
 A,2 A,2 A,2 A,2 | E,8 | E,8 | A,2 A,2 A,2 A,2 | A,2 A,2 A,2 A,2 | D2 D2 D2 D2 | D2 D2 D2 E2 | %24
w: |||||||
 F,2 F,2 F,2 F,2 | G,2 G,2 G,2 G,2 | C2 x6 | x8 | x8 || A,2 A,2 A,2 A,2 | A,2 A,2 A,2 A,2 | %31
w: |||||||
 G,2 G,2 G,2 G,2 | A,2 A,2 A,2 A,2 | A,2 A,2 A,2 A,2 | A,2 A,2 A,2 A,2 | E,8 | E,8 | %37
w: ||||||
 A,2 A,2 A,2 A,2 | A,2 A,2 A,2 A,2 | D2 D2 D2 D2 | D2 D2 D2 E2 | F,2 F,2 F,2 F,2 | %42
w: |||||
 G,2 G,2 G,2 G,2 | C2 x6 | x8 | x8 | C4 G,4 | C4 G,4 | C4 G,4 | G,4 D4 | G,4 D4 | G,4 D4 | %52
w: ||||||||||
 G,2 A,2 ^A,2 B,2 | C2 z2 z4 | C4 G,4 | C4 G,4 | C4 G,4 | F,4 C4 | F,4 ^F,4 | G,4 A,4 | D4 G,4 | %61
w: |||||||||
 C2 G,2 C2 z2 |] %62
w: |
V:3
 !4!E, !4!_E, !4!=E, !3!G,- !3!G,2 !4!E,2 | !3!G, !3!A, !3!G, !2!C- !2!C4 | %2
 !2!C !1!E- !1!E2 !2!C2 !3!A, !2!D- | !2!D8 | !2!B, !2!B, !2!D !2!D !2!B, !2!B, !2!D !2!D | %5
 !2!B, !3!_B,- !3!B, !3!A,- !3!A,4 | !2!B,2 !2!C2 !2!^C2 !2!D2 | !1!E !2!_E !2!D !2!C- !2!C2 x2 | %8
 !4!E, !4!_E, !4!=E, !3!G,- !3!G,2 !4!E,2 | !3!G, !3!A, !3!G, !2!C- !2!C2 x2 | %10
 !1!E !1!E- !1!E2 !2!D2 !3!A, !2!C- | !2!C4 x4 | !2!C !3!A, !2!C{/!2!D} !2!_E- !2!E !2!D3 | %13
 !2!C !3!A, !2!C{/!3!^A,} !3!B,- !3!B, !3!=A,3 | !1!E !1!E- !1!E2 !1!E !1!E- !1!E2 | !2!C2 x2 x4 || %16
 !3!A,4 !2!B,4 | !2!C4 !1!G4 | [!2!B,!1!E]2 !2!C2 !2!B,2 !2!D2 | !2!B,2 !2!C2 !2!B,2 !2!D2 | %20
{/!1!G} !1!A4 !1!G4 | !1!E4 !2!D2 !2!C2 | !2!D4!-(!{/!2!C} !-)!!2!D2 !3!A,2- | !3!A,4 x4 | %24
 !2!C4 !3!A,4 | !3!G,4 !3!A,4 | !2!C !4!E, !4!F, !3!G, !4!F, !4!E, !4!D, !5!C, | %27
 !3!G,2 x2 !6!G,,2 !6!G,,2 | !3!G,2 !6!G,, !5!B,, !4!D, !4!F,- !4!F,2 || %29
 !2!C !3!A, !2!C !3!A, !2!C !3!A, !2!C !3!A, | !2!C !3!A, !2!C !3!A, !2!C2 !4!E, !3!G,- | %31
 !3!G,2 !3!G, !4!E, !3!G, !3!A,- !3!A, !4!E,- | !4!E,8 | !3!A,4 !2!B,4 | !2!C4 !1!G4 | %35
 [!2!B,!1!E]2 !2!C2 !2!B,2 !2!D2 | !2!B,2 !2!C2 !2!B,2 !2!D2 |!-(!{/!1!G} !-)!!1!A4 !1!G4 | %38
 !1!E4 !2!D2 !2!C2 | !2!D4{/!2!C} !2!D2 !3!A,2- | !3!A,4 x4 | !2!C4 !3!A,4 | !3!G,4 !3!A,4 | %43
 !2!C !4!E, !4!F, !3!G, !4!F, !4!E, !4!D, !5!C, | !3!G,2 x2 !6!G,,2 !6!G,,2 | %45
 !3!G,2 !6!G,, !5!B,, !4!D, !4!F,- !4!F,2 | !4!E, !4!_E, !4!=E, !3!G,- !3!G,2 !4!E,2 | %47
 !3!G, !3!A, !3!G, !2!C- !2!C4 | !2!C !1!E- !1!E2 !2!C2 !3!A, !2!D- | !2!D8 | %50
 !2!B, !2!C !2!^C !2!D !2!B, !2!=C !2!^C !2!D | !2!B, !3!_B,- !3!B, !3!A,- !3!A,4 | %52
 !2!B,2 !2!C2 !2!^C2 !2!D2 | !1!E !2!_E !2!D !2!C- !2!C2 x2 | %54
 !4!E, !4!_E, !4!=E, !3!G,- !3!G,2 !4!E,2 | !3!G, !3!A, !3!G, !2!C- !2!C2 x2 | %56
 !1!E !1!E- !1!E2 !2!D2 !3!A, !2!C- | !2!C4 x4 | !2!C !3!A, !2!C{/!2!D} !2!_E- !2!E !2!D3 | %59
 !2!C !3!A, !2!C{/!3!^A,} !3!B,- !3!B, !3!=A,3 | !1!E !1!E- !1!E2 !1!E !1!E- !1!E2 | !2!C2 x2 x4 |] %62
V:4
 .!5!C,4 .!6!G,,4 | !5!C,4 !6!G,,4 | !5!C,4 !6!G,,4 | !6!G,,4 !4!D,4 | !6!G,,4 !4!D,4 | %5
 !6!G,,4 !4!D,4 | !6!G,,2 !5!A,,2 !5!^A,,2 !5!B,,2 | !5!C,2 x2 x4 | !5!C,4 !6!G,,4 | %9
 !5!C,4 !6!G,,4 | !5!C,4 !6!G,,4 | !6!F,,4 !5!C,4 | !6!F,,4 !6!^F,,4 | !6!G,,4 !5!A,,4 | %14
 !4!D,4 !6!G,,4 | !5!C,2 !6!G,,2 !5!C,2 x2 || !5!A,,2 !5!A,,2 !5!A,,2 !5!A,,2 | %17
 !5!A,,2 !5!A,,2 !5!A,,2 !5!A,,2 | !6!E,,8 | !6!E,,8 | !5!A,,2 !5!A,,2 !5!A,,2 !5!A,,2 | %21
 !5!A,,2 !5!A,,2 !5!A,,2 !5!A,,2 | !4!D,2 !4!D,2 !4!D,2 !4!D,2 | !4!D,2 !4!D,2 !4!D,2 !4!E,2 | %24
 !6!F,,2 !6!F,,2 !6!F,,2 !6!F,,2 | !6!G,,2 !6!G,,2 !6!G,,2 !6!G,,2 | !5!C,2 x6 | x8 | x8 || %29
 !5!A,,2 !5!A,,2 !5!A,,2 !5!A,,2 | !5!A,,2 !5!A,,2 !5!A,,2 !5!A,,2 | %31
 !6!G,,2 !6!G,,2 !6!G,,2 !6!G,,2 | !5!A,,2 !5!A,,2 !5!A,,2 !5!A,,2 | %33
 !5!A,,2 !5!A,,2 !5!A,,2 !5!A,,2 | !5!A,,2 !5!A,,2 !5!A,,2 !5!A,,2 | !6!E,,8 | !6!E,,8 | %37
 !5!A,,2 !5!A,,2 !5!A,,2 !5!A,,2 | !5!A,,2 !5!A,,2 !5!A,,2 !5!A,,2 | !4!D,2 !4!D,2 !4!D,2 !4!D,2 | %40
 !4!D,2 !4!D,2 !4!D,2 !4!E,2 | !6!F,,2 !6!F,,2 !6!F,,2 !6!F,,2 | !6!G,,2 !6!G,,2 !6!G,,2 !6!G,,2 | %43
 !5!C,2 x6 | x8 | x8 | !5!C,4 !6!G,,4 | !5!C,4 !6!G,,4 | !5!C,4 !6!G,,4 | !6!G,,4 !4!D,4 | %50
 !6!G,,4 !4!D,4 | !6!G,,4 !4!D,4 | !6!G,,2 !5!A,,2 !5!^A,,2 !5!B,,2 | !5!C,2 x2 x4 | %54
 !5!C,4 !6!G,,4 | !5!C,4 !6!G,,4 | !5!C,4 !6!G,,4 | !6!F,,4 !5!C,4 | !6!F,,4 !6!^F,,4 | %59
 !6!G,,4 !5!A,,4 | !4!D,4 !6!G,,4 | !5!C,2 !6!G,,2 !5!C,2 x2 |] %62

